Papirus-nordic/24x24/places/folder-nordic-pictures-open.svg

<svg xmlns="http://www.w3.org/2000/svg" width="24" height="24" version="1">
 <rect width="20" height="12" x="2" y="9.5" rx="1" ry="1" opacity=".2"/>
 <path d="M2 17c0 .554.446 1 1 1h18c.554 0 1-.446 1-1V6c0-.554-.446-1-1-1H11V4c0-.554-.446-1-1-1H3c-.554 0-1 .446-1 1" fill="#6c9b9a"/>
 <rect width="20" height="10" x="2" y="10.5" rx="1" ry="1" opacity=".2"/>
 <rect width="16" height="8" x="4" y="7" rx="1" ry="1" fill="#e4e4e4"/>
 <rect width="20" height="10" x="2" y="11" rx="1" ry="1" fill="#82abaa"/>
 <path d="M3 3c-.554 0-1 .446-1 1v.5c0-.554.446-1 1-1h7c.554 0 1 .446 1 1V4c0-.554-.446-1-1-1zm8 2v.5h10c.554 0 1 .446 1 1V6c0-.554-.446-1-1-1z" opacity=".1" fill="#fff"/>
 <path d="M9.5 13c-.5 0-.5.5-.5.5v5c0 .5.5.5.5.5h6s.5 0 .5-.5v-5c0-.5-.5-.5-.5-.5zm3.5 4l1-1.22L15 17v1h-5v-1.5l1.25-1.25z" fill="#4e6766"/>
</svg>

<svg xmlns="http://www.w3.org/2000/svg" width="24" height="24" version="1">
 <rect style="opacity:0.2" width="20" height="12" x="2" y="9.5" rx="1" ry="1"/>
 <path style="fill:#6c9b9a" d="M 2,17 C 2,17.554 2.446,18 3,18 H 21 C 21.554,18 22,17.554 22,17 V 6 C 22,5.446 21.554,5 21,5 H 12 C 10.5,5 10,3 8.5,3 H 3 C 2.446,3 2,3.446 2,4"/>
 <rect style="opacity:0.2" width="20" height="10" x="2" y="10.5" rx="1" ry="1"/>
 <rect style="fill:#eceff4" width="16" height="8" x="4" y="7" rx="1" ry="1"/>
 <rect style="fill:#82abaa" width="20" height="10" x="2" y="11" rx="1" ry="1"/>
 <path style="opacity:0.1;fill:#ffffff" d="M 3,3 C 2.446,3 2,3.446 2,4 V 4.5 C 2,3.946 2.446,3.5 3,3.5 H 8.5 C 10,3.5 10.5,5.5 12,5.5 H 21 C 21.554,5.5 22,5.946 22,6.5 V 6 C 22,5.446 21.554,5 21,5 H 12 C 10.5,5 10,3 8.5,3 Z"/>
 <path style="fill:#4e6766" d="M 9.5,13 C 9,13 9,13.5 9,13.5 V 18.5 C 9,19 9.5,19 9.5,19 H 15.5 C 15.5,19 16,19 16,18.5 V 13.5 C 16,13 15.5,13 15.5,13 Z M 13,17 14,15.78 15,17 V 18 H 10 V 16.5 L 11.25,15.25 Z"/>
</svg>
